svg/contact/chat_4_line.svg

<?xml version="1.0" encoding="UTF-8"?>
<svg width="24px" height="24px" viewBox="0 0 24 24" version="1.1" xmlns="http://www.w3.org/2000/svg" xmlns:xlink="http://www.w3.org/1999/xlink">
    <title>chat_4_line</title>
    <g id="Icon" stroke="none" stroke-width="1" fill="none" fill-rule="evenodd">
        <g id="Contact" transform="translate(-144.000000, -96.000000)" fill-rule="nonzero">
            <g id="chat_4_line" transform="translate(144.000000, 96.000000)">
                <path d="M24,0 L24,24 L0,24 L0,0 L24,0 Z M12.5935,23.2578 L12.5819,23.2595 L12.5109,23.295 L12.4919,23.2987 L12.4767,23.295 L12.4057,23.2595 C12.3958,23.2564 12.387,23.259 12.3821,23.2649 L12.378,23.2758 L12.3609,23.7031 L12.3659,23.7235 L12.3769,23.7357 L12.4805,23.8097 L12.4953,23.8136 L12.5071,23.8097 L12.6107,23.7357 L12.6233,23.7197 L12.6267,23.7031 L12.6096,23.2758 C12.6076,23.2657 12.601,23.2593 12.5935,23.2578 Z M12.8584,23.1453 L12.8445,23.1473 L12.6598,23.2397 L12.6499,23.2499 L12.6472,23.2611 L12.6651,23.6906 L12.6699,23.7034 L12.6784,23.7105 L12.8793,23.8032 C12.8914,23.8069 12.9022,23.803 12.9078,23.7952 L12.9118,23.7812 L12.8777,23.1665 C12.8753,23.1546 12.8674,23.147 12.8584,23.1453 Z M12.143,23.1473 C12.1332,23.1424 12.1222,23.1453 12.1156,23.1526 L12.1099,23.1665 L12.0758,23.7812 C12.0751,23.7927 12.0828,23.8019 12.0926,23.8046 L12.1083,23.8032 L12.3092,23.7105 L12.3186,23.7024 L12.3225,23.6906 L12.3404,23.2611 L12.3372,23.2485 L12.3278,23.2397 L12.143,23.1473 Z" id="MingCute"></path>
                <path d="M17,3 C19.7614,3 22,5.23858 22,8 L22,16 C22,18.7614 19.7614,21 17,21 L3,21 C2.44772,21 2,20.5523 2,20 L2,8 C2,5.23858 4.23858,3 7,3 L17,3 Z M17,5 L7,5 C5.34315,5 4,6.34315 4,8 L4,19 L17,19 C18.6569,19 20,17.6569 20,16 L20,8 C20,6.34315 18.6569,5 17,5 Z M9,10 C9.55228,10 10,10.4477 10,11 L10,13 C10,13.5523 9.55228,14 9,14 C8.44772,14 8,13.5523 8,13 L8,11 C8,10.4477 8.44772,10 9,10 Z M15,10 C15.51285,10 15.9355092,10.386027 15.9932725,10.8833761 L16,11 L16,13 C16,13.5523 15.5523,14 15,14 C14.48715,14 14.0644908,13.613973 14.0067275,13.1166239 L14,13 L14,11 C14,10.4477 14.4477,10 15,10 Z" id="形状" fill="#09244B"></path>
            </g>
        </g>
    </g>
</svg>

<svg xmlns="http://www.w3.org/2000/svg" width="24" height="24"><g fill="none" fill-rule="nonzero"><path d="M24 0v24H0V0h24ZM12.594 23.258l-.012.002-.071.035-.02.004-.014-.004-.071-.036c-.01-.003-.019 0-.024.006l-.004.01-.017.428.005.02.01.013.104.074.015.004.012-.004.104-.074.012-.016.004-.017-.017-.427c-.002-.01-.009-.017-.016-.018Zm.264-.113-.014.002-.184.093-.01.01-.003.011.018.43.005.012.008.008.201.092c.012.004.023 0 .029-.008l.004-.014-.034-.614c-.003-.012-.01-.02-.02-.022Zm-.715.002a.023.023 0 0 0-.027.006l-.006.014-.034.614c0 .012.007.02.017.024l.015-.002.201-.093.01-.008.003-.011.018-.43-.003-.012-.01-.01-.184-.092Z"/><path fill="#09244B" d="M17 3a5 5 0 0 1 5 5v8a5 5 0 0 1-5 5H3a1 1 0 0 1-1-1V8a5 5 0 0 1 5-5h10Zm0 2H7a3 3 0 0 0-3 3v11h13a3 3 0 0 0 3-3V8a3 3 0 0 0-3-3Zm-8 5a1 1 0 0 1 1 1v2a1 1 0 1 1-2 0v-2a1 1 0 0 1 1-1Zm6 0a1 1 0 0 1 .993.883L16 11v2a1 1 0 0 1-1.993.117L14 13v-2a1 1 0 0 1 1-1Z"/></g></svg>
